ids-wordpress/site-IdS/assets/images/projetos/icones-ferramentasetec/css.svg

<svg width="37" height="36" viewBox="0 0 37 36" fill="none" xmlns="http://www.w3.org/2000/svg">
<g clip-path="url(#clip0_694_1564)">
<path d="M17.3983 0.806567C31.5089 -0.165092 41.0492 14.7142 34.0522 27.0858C28.6599 36.6197 15.3814 38.8433 7.09567 31.6866C-4.88897 21.3319 1.61455 1.89239 17.3983 0.806567ZM18.0325 1.94694C1.4395 2.7854 -3.9579 24.3167 10.414 32.5517C21.7758 39.0628 35.9347 30.361 35.1774 17.3007C34.6687 8.53417 26.8041 1.50297 18.0325 1.94694Z" fill="#F75705"/>
<path d="M18.8511 15.7513L18.7293 16.0418C18.7851 16.468 20.7576 17.1581 21.2181 17.4435C24.7368 19.6303 23.1462 24.1601 19.1416 24.344C17.5864 24.4151 14.6055 23.7808 15.4249 21.6409C16.3281 19.2815 18.5225 22.2777 19.8164 20.7111C19.9331 20.1111 17.9733 19.506 17.5141 19.246C14.0638 17.2963 15.0951 12.8845 18.8866 12.556C20.4798 12.4177 23.5318 12.9492 22.4409 15.2224C21.6126 16.9475 19.7124 15.0816 18.8536 15.7513H18.8511ZM18.5327 13.7243C17.5889 13.8816 16.6185 14.8139 16.5361 15.7856C16.2799 18.835 20.4773 18.3783 20.8172 20.2494C21.1623 22.1508 19.4815 22.3753 18.0063 22.1724C17.4925 22.1013 16.7238 21.41 16.4739 21.9314C15.879 23.1732 18.6722 23.2671 19.3876 23.196C21.1584 23.0223 22.2696 21.8223 21.9576 19.9957C21.6075 17.9496 18.043 17.8583 17.7056 16.3906C17.2325 14.3357 19.8862 14.3116 21.1724 14.9572C21.5606 14.8482 21.7787 14.3699 21.4033 14.0871C20.7855 13.6203 19.2786 13.5974 18.5327 13.723V13.7243Z" fill="#F75705"/>
<path d="M27.6595 20.1884C27.421 19.9424 26.1817 19.5555 25.7859 19.3386C21.2054 16.8232 24.0024 11.4156 29.0865 12.745C30.4603 13.104 31.4472 14.2304 30.3563 15.5331C29.3897 16.6874 27.029 14.9166 26.8058 15.9162C26.7018 16.3792 29.1525 17.3064 29.6345 17.6464C32.8729 19.9284 30.9322 24.1575 27.2485 24.3364C25.6717 24.4138 22.4777 23.6552 23.6117 21.462C24.4819 19.78 25.8925 21.3719 27.2409 21.1614C27.7749 21.0789 28.0641 20.6058 27.6595 20.1884ZM26.6459 13.7242C24.6988 14.0312 23.9098 16.3969 25.3483 17.7479C26.4874 18.8185 29.2641 18.8654 28.9305 20.9495C28.6438 22.7444 26.0383 22.3208 24.8586 21.6979L24.4147 22.2256C24.4959 23.1694 26.8007 23.2683 27.4996 23.1973C29.207 23.0235 30.3664 21.7309 30.0696 19.9982C29.7131 17.9153 26.1563 17.862 25.8176 16.3931C25.3394 14.3242 27.9728 14.323 29.2844 14.9597C29.6725 14.8507 29.8907 14.3724 29.5153 14.0896C28.8886 13.6177 27.402 13.6063 26.6447 13.7255L26.6459 13.7242Z" fill="#F75705"/>
<path d="M14.3391 23.4079C13.3472 24.3263 11.4318 24.4785 10.1747 24.1741C4.35488 22.7661 5.02844 11.7125 12.2778 12.5675C13.7163 12.7374 15.5607 13.8702 14.4368 15.4596C13.6085 16.6317 12.8943 15.778 11.9062 15.7209C8.95567 15.5471 9.1155 20.7162 11.1781 21.1424C12.4833 21.4113 13.4322 20.1543 14.3822 21.1082C15.066 21.7957 15.0431 22.7559 14.3378 23.4092L14.3391 23.4079ZM13.6212 21.8046C7.82926 24.698 6.36035 14.1531 12.2931 14.7074C12.6647 14.7417 13.611 15.2643 13.7302 14.6275C13.8152 14.1696 12.8791 13.7852 12.515 13.7243C5.67918 12.584 5.75275 23.8227 12.0368 23.1974C12.7472 23.1263 14.0816 22.7268 13.6212 21.8046Z" fill="#F75705"/>
</g>
<defs>
<clipPath id="clip0_694_1564">
<rect width="35.4909" height="35.1434" fill="white" transform="translate(0.910919 0.760498)"/>
</clipPath>
</defs>
</svg>

<svg xmlns="http://www.w3.org/2000/svg" width="37" height="36" fill="none"><g fill="#F75705" clip-path="url(#a)"><path d="M17.398.807c14.11-.972 23.651 13.907 16.654 26.279-5.392 9.534-18.67 11.757-26.956 4.6C-4.89 21.333 1.615 1.893 17.398.807Zm.634 1.14c-16.593.838-21.99 22.37-7.618 30.605 11.362 6.51 25.52-2.191 24.763-15.251-.508-8.767-8.373-15.798-17.145-15.354Z"/><path d="m18.851 15.751-.122.29c.056.427 2.029 1.117 2.49 1.402 3.518 2.187 1.927 6.717-2.077 6.901-1.556.071-4.537-.563-3.717-2.703.903-2.36 3.098.637 4.391-.93.117-.6-1.843-1.205-2.302-1.465-3.45-1.95-2.419-6.361 1.373-6.69 1.593-.138 4.645.393 3.554 2.666-.828 1.726-2.729-.14-3.587.53h-.003Zm-.318-2.027c-.944.158-1.915 1.09-1.997 2.062-.256 3.049 3.941 2.592 4.281 4.463.345 1.902-1.335 2.126-2.81 1.923-.515-.07-1.283-.762-1.533-.24-.595 1.241 2.198 1.335 2.914 1.264 1.77-.174 2.882-1.374 2.57-3.2-.35-2.046-3.915-2.138-4.252-3.605-.473-2.055 2.18-2.08 3.466-1.434.389-.109.607-.587.231-.87-.617-.467-2.124-.49-2.87-.364v.001Z"/><path d="M27.66 20.188c-.239-.246-1.478-.633-1.874-.85-4.58-2.515-1.784-7.922 3.3-6.593 1.374.359 2.361 1.485 1.27 2.788-.966 1.154-3.327-.616-3.55.383-.104.463 2.346 1.39 2.828 1.73 3.239 2.282 1.298 6.511-2.386 6.69-1.576.078-4.77-.68-3.636-2.874.87-1.682 2.28-.09 3.629-.3.534-.083.823-.556.419-.974Zm-1.014-6.464c-1.947.307-2.736 2.673-1.298 4.024 1.14 1.07 3.916 1.117 3.582 3.201-.286 1.795-2.892 1.372-4.071.749l-.444.528c.08.943 2.386 1.042 3.085.971 1.707-.174 2.866-1.466 2.57-3.199-.357-2.083-3.914-2.136-4.252-3.605-.479-2.069 2.155-2.07 3.466-1.433.389-.11.607-.588.231-.87-.626-.472-2.113-.484-2.87-.364v-.002ZM14.34 23.408c-.993.918-2.908 1.07-4.165.766-5.82-1.408-5.147-12.461 2.103-11.606 1.438.17 3.283 1.302 2.159 2.892-.829 1.172-1.543.318-2.53.26-2.951-.173-2.791 4.996-.729 5.422 1.305.27 2.254-.988 3.204-.034.684.688.661 1.648-.044 2.301l.001-.001Zm-.719-1.603c-5.792 2.893-7.26-7.652-1.328-7.098.372.035 1.318.557 1.437-.08.085-.457-.85-.842-1.215-.903-6.836-1.14-6.762 10.099-.478 9.473.71-.07 2.045-.47 1.584-1.392Z"/></g><defs><clipPath id="a"><path fill="#fff" d="M.91.76h35.492v35.143H.91z"/></clipPath></defs></svg>
